public/divider_2.svg

<?xml version="1.0" encoding="UTF-8" standalone="no"?>
<svg
   width="1440"
   height="239"
   viewBox="0 0 1440 239"
   fill="none"
   version="1.1"
   id="svg2"
   xmlns="http://www.w3.org/2000/svg"
   xmlns:svg="http://www.w3.org/2000/svg">
  <defs
     id="defs2" />
  <mask
     id="mask0_31_74"
     maskUnits="userSpaceOnUse"
     x="-224"
     y="0"
     width="1967"
     height="242">
    <rect
       x="-224"
       width="1967"
       height="241.446"
       fill="#ffffff"
       id="rect1"
       y="0" />
  </mask>
  <g
     mask="url(#mask0_31_74)"
     id="g1">
    <path
       d="m 1119.01,169.73 0.25,-0.905 -0.25,0.906 c 88.78,23.983 218.79,45.078 351.64,59.366 -58.7,71.392 -163.09,132.848 -299.3,176.019 -137.1,43.452 -299.693,66.238 -465.673,65.247 C 539.697,469.371 378.42,444.651 243.772,399.578 110.037,354.81 9.1223,292.158 -45.6128,220.134 108.726,213.102 299.18,198.108 417.545,166.527 c 29.718,-7.929 54.941,-16.916 73.924,-27.11 18.951,-10.177 31.854,-21.649 36.652,-34.636 4.836,-13.0902 1.339,-27.4144 -11.768,-42.9824 -12.754,-15.1473 -34.7,-31.6053 -67.331,-49.519 170.366,-26.1461 276.772,-3.51621 370.81,33.9041 33.318,13.2584 65.069,28.3664 97.589,43.8404 13.68,6.5092 27.496,13.0829 41.622,19.6119 47.687,22.037 98.827,43.516 159.967,60.094 z"
       fill="#0f1120"
       stroke="#2765c2"
       stroke-width="2"
       id="path1" />
  </g>
</svg>

<svg width="1440" height="1268" viewBox="0 0 1440 1268" fill="none" xmlns="http://www.w3.org/2000/svg">
<mask id="mask0_31_74" style="mask-type:alpha" maskUnits="userSpaceOnUse" x="-224" y="0" width="1967" height="242">
<rect x="-224" width="1967" height="241.446" fill="white"/>
</mask>
<g mask="url(#mask0_31_74)">
<path d="M1119.01 169.73L1119.26 168.825L1119.01 169.731C1207.79 193.714 1337.8 214.809 1470.65 229.097C1411.95 300.489 1307.56 361.945 1171.35 405.116C1034.25 448.568 871.657 471.354 705.677 470.363C539.697 469.371 378.42 444.651 243.772 399.578C110.037 354.81 9.1223 292.158 -45.6128 220.134C108.726 213.102 299.18 198.108 417.545 166.527C447.263 158.598 472.486 149.611 491.469 139.417C510.42 129.24 523.323 117.768 528.121 104.781C532.957 91.6908 529.46 77.3666 516.353 61.7986C503.599 46.6513 481.653 30.1933 449.022 12.2796C619.388 -13.8665 725.794 8.76339 819.832 46.1837C853.15 59.4421 884.901 74.5501 917.421 90.0241C931.101 96.5333 944.917 103.107 959.043 109.636C1006.73 131.673 1057.87 153.152 1119.01 169.73Z" fill="#0F1120" stroke="#2765C2" stroke-width="2"/>
</g>
<rect x="-31" y="241.446" width="1504" height="1026.55" fill="#0F1120"/>
</svg>
